forward-electronic/img/tel-contacts.svg

<svg width="27" height="27" viewBox="0 0 27 27" fill="none" xmlns="http://www.w3.org/2000/svg">
  <path d="m 0.881938,5.78017 h -2.7e-5 L 0.881497,5.7854 C 0.784959,7.00513 1.02356,8.3161 1.61141,9.89485 2.55727,12.4618 3.9844,14.8465 6.08568,17.3905 l 9.6e-4,0.0011 C 8.649,20.475 11.7399,22.9068 15.2621,24.621 l 0.0029,0.0014 c 1.2834,0.6144 3.0511,1.3664 4.9749,1.4903 l 0.0026,10e-5 c 0.0932,0.0055 0.2072,0.0121 0.3185,0.0121 1.891324,-0.12877 2.683891,-1.150219 3.8366,-2.3152 l 0.0576,-0.0564 c 0.2616,-0.2518 0.5131,-0.4989 0.7553,-0.7597 0.3927,-0.412 0.6445,-0.8861 0.6486,-1.4071 0.0041,-0.5263 -0.245,-0.9968 -0.6415,-1.3956 l -3e-4,-2e-4 -3.3452,-3.3589 c -0.2538,-0.2726 -0.7198,-0.651 -1.3444,-0.651 -0.5191,0 -0.9894,0.2604 -1.3717,0.6449 l -2.0788,2.0907 c -0.0856,0.0861 -0.2471,0.2327 -0.4735,0.2327 -0.0893,0 -0.1888,-0.0214 -0.3092,-0.0837 v -10e-5 l -0.0036,-0.0018 c -0.001,-5e-4 -0.0033,-0.0019 -0.0078,-0.0044 -0.0054,-0.0031 -0.0154,-0.009 -0.0283,-0.016 -0.2021,-0.1277 -0.4215,-0.2404 -0.6361,-0.3484 -0.0439,-0.0226 -0.0868,-0.0444 -0.1288,-0.0658 -0.2019,-0.1028 -0.3837,-0.1954 -0.5577,-0.3093 h 10e-5 L 14.9274,18.3165 C 13.0454,17.1144 11.3288,15.5491 9.69098,13.5178 8.78863,12.3763 8.22212,11.4357 7.81642,10.4589 7.81148,10.4453 7.80735,10.4351 7.80563,10.4307 c -3e-5,0 -6e-5,-10e-5 -10e-5,-2e-4 -0.04516,-0.1376 -0.06465,-0.2476 -0.05226,-0.349 0.011,-0.08996 0.05222,-0.21619 0.21189,-0.37677 0,-10e-6 0,-10e-6 10e-6,-10e-6 L 7.98234,9.68744 C 8.48419,9.23967 8.94264,8.77319 9.4105,8.29715 9.44957,8.25739 9.48871,8.21757 9.52794,8.17768 9.61512,8.08999 9.70206,8.00115 9.78737,7.91396 l 8.9e-4,-9.1e-4 C 9.87465,7.82476 9.9594,7.73815 10.0439,7.65316 c 0.3972,-0.3995 0.6679,-0.87107 0.6679,-1.39788 0,-0.5268 -0.2707,-0.99838 -0.6679,-1.39788 L 8.39008,3.19407 C 8.29306,3.09373 8.19624,2.99495 8.10146,2.89826 L 8.09899,2.89573 C 8.00221,2.797 7.90761,2.70048 7.81461,2.60419 l 10e-6,-1e-5 L 7.8121,2.60161 C 7.76248,2.55097 7.71309,2.50046 7.66385,2.4501 7.34513,2.12413 7.03255,1.80443 6.70343,1.49764 6.32137,1.11013 5.85832,0.869566 5.354,0.869566 c -0.50695,0 -0.98139,0.238094 -1.37102,0.616454 l -5e-5,-6e-5 5e-5,6e-5 -2.07386,2.08567 C 1.29206,4.19228 0.958908,4.92219 0.881938,5.78017 Z" stroke="url(#paint0_linear)" />
  <defs>
    <linearGradient id="paint0_linear" x1="2.81059" y1="-1.40754" x2="22.597" y2="3.05233" gradientUnits="userSpaceOnUse">
      <stop stop-color="#69D1D1"/>
      <stop offset="1" stop-color="#3EA8A7"/>
    </linearGradient>
  </defs>
</svg>

<svg width="27" height="27" fill="none" xmlns="http://www.w3.org/2000/svg"><path d="M.882 5.78h0v.005c-.097 1.22.142 2.531.73 4.11.945 2.567 2.372 4.952 4.474 7.495v.002c2.563 3.083 5.654 5.515 9.176 7.229l.003.001c1.283.615 3.051 1.367 4.975 1.49h.003c.093.006.207.013.318.013 1.891-.129 2.684-1.15 3.837-2.315l.057-.057c.262-.252.513-.499.756-.76.392-.411.644-.885.648-1.406.004-.527-.245-.997-.641-1.396h0l-3.346-3.36c-.254-.272-.72-.65-1.344-.65-.52 0-.99.26-1.372.645l-2.079 2.09c-.085.087-.247.233-.473.233a.66.66 0 0 1-.31-.084v0l-.003-.001-.008-.005-.028-.016a7.535 7.535 0 0 0-.636-.348l-.13-.066a5.835 5.835 0 0 1-.557-.31h0l-.005-.002c-1.882-1.203-3.598-2.768-5.236-4.8-.902-1.14-1.469-2.081-1.875-3.058l-.01-.028s0 0 0 0a.808.808 0 0 1-.053-.35c.011-.09.052-.216.212-.376 0 0 0 0 0 0l.017-.018c.502-.447.96-.914 1.429-1.39a407.283 407.283 0 0 1 .376-.383h.001c.087-.09.171-.176.256-.26.397-.4.668-.872.668-1.399s-.27-.998-.668-1.398L8.39 3.194a60.2 60.2 0 0 0-.289-.296L8.1 2.896a55.169 55.169 0 0 1-.284-.292h0l-.003-.002-.148-.152c-.319-.326-.631-.646-.96-.952C6.32 1.11 5.857.87 5.353.87c-.507 0-.981.238-1.371.616h0L1.909 3.572A3.46 3.46 0 0 0 .882 5.78z" stroke="url(#paint0_linear)"/><defs><linearGradient id="paint0_linear" x1="2.811" y1="-1.408" x2="22.597" y2="3.052" gradientUnits="userSpaceOnUse"><stop stop-color="#69D1D1"/><stop offset="1" stop-color="#3EA8A7"/></linearGradient></defs></svg>
